X: 17197
T: Henry McDermott Roe
R: waltz
M: 3/4
K: Gmajor
D|:GG/A/B/A/ GED|G/F/G/A/B/c/ dBG|c/e/d/c/B/A/ B/d/c/B/A/G/|
AA/B/c/A/ BGE|GG/A/B/A/ GED|G/F/G/A/B/c/ dBG|
c/e/d/c/B/A/ B/d/g/B/A/c/|1 BGG G2D:|2 BGG G2(3d/e/f/||
|:gg/a/g/f/ edB|ee/f/g/a/ bge|gg/a/g/f/ edB|
ee/g/f/a/ g2(3d/e/f/|gg/a/g/f/ edB|e/d/e/f/g/f/ e/d/c/B/A/G/|
c/e/d/c/B/A/ B/d/g/B/A/c/|1 BGG G2(3d/e/f/:|2 BGG G2D||

